X: 18973
T: Inisheer
R: waltz
M: 3/4
K: Amajor
|:c3B ce|c3B ce|F3c Bc|E3c BA|
c3B ce|c3B ce|F3c B/A/G|1 A3F EA:|2 A3B ce||
f3g fe|c3B ce|fg fe c/d/e|f3B ce|
f3g fe|c3B ce|F3c B/A/G|A3B ce||
f3g fe|c3B ce|ag fe c/d/e|f3B ce|
f3g fe|c3B ce|E3c B/A/G|A6||

